X:33
T:Les filles de marbre
O:France
C:
A:Provence
R:Danse de caractre
M:2/4
L:1/8
K:F
P:A
Fd d>c |  cB B2 | Fd d>c | cBA2 | cf f>e | ed (dc) |ed cA | BG F2 ||
P:B
ff ff | g/f/e/d/ ec | ee ee | f/e/d/c/ dB | ff ff | g/f/e/d/ ec | ee ee | f/e/d/c/ B2 |]
%%footer $D   Galouvielle-MBe 2005 \nDanse de caractre Provence
